markets/NFLX.svg

<svg width="42" height="42" viewBox="0 0 42 42" fill="none" xmlns="http://www.w3.org/2000/svg">
<circle cx="21" cy="21" r="21" fill="black"/>
<path fill-rule="evenodd" clip-rule="evenodd" d="M23.178 7.32239L23.1673 13.3758L23.1567 19.4291L22.6586 18.0239C22.6584 18.0234 22.6578 18.0216 22.6577 18.0211L22.0141 31.4976C22.6468 33.2844 22.9859 34.2383 22.9897 34.2421C22.9946 34.2471 23.3552 34.2689 23.791 34.2905C25.1112 34.356 26.7472 34.4964 27.9883 34.6506C28.2756 34.6863 28.5229 34.7046 28.5378 34.6912C28.5527 34.6779 28.5608 28.5144 28.5558 20.9947L28.5468 7.32239H25.8624H23.178V7.32239Z" fill="#B1060F" stroke="black" stroke-width="0.0820533"/>
<path fill-rule="evenodd" clip-rule="evenodd" d="M13.4673 7.30432V20.9905C13.4673 28.5178 13.4747 34.684 13.4837 34.693C13.4927 34.7021 13.9589 34.658 14.5196 34.5952C15.0804 34.5324 15.8554 34.4543 16.2418 34.4217C16.8345 34.3717 18.6041 34.2579 18.809 34.2567C18.8686 34.2563 18.8724 33.9488 18.881 28.4598L18.8902 22.6633L19.3183 23.8747C19.3845 24.0619 19.4052 24.1204 19.4697 24.3028L20.1131 10.8297C19.9768 10.4443 20.0483 10.6466 19.892 10.2049C19.3663 8.71858 18.9202 7.45791 18.9007 7.40341L18.8651 7.30432H16.1663H13.4673V7.30432Z" fill="#B1060F" stroke="black" stroke-width="0.0820533"/>
<path fill-rule="evenodd" clip-rule="evenodd" d="M13.4673 7.30432V14.9867L18.8792 29.3426C18.8798 29.0136 18.8805 28.8358 18.881 28.4598L18.8902 22.6633L19.3183 23.8747C21.7017 30.6186 22.9821 34.2345 22.9896 34.2421C22.9946 34.2471 23.3552 34.2688 23.791 34.2904C25.1112 34.3559 26.7472 34.4963 27.9882 34.6505C28.2756 34.6862 28.5229 34.7045 28.5378 34.6912C28.548 34.682 28.5547 31.6599 28.5565 27.3966L23.1699 11.9102L23.1673 13.3757L23.1566 19.4291L22.6586 18.0238C22.172 16.6508 21.8471 15.7325 19.892 10.2049C19.3663 8.71858 18.9202 7.45791 18.9007 7.40341L18.8651 7.30432H16.1663H13.4673H13.4673Z" fill="url(#paint0_radial_7277_57536)"/>
<path fill-rule="evenodd" clip-rule="evenodd" d="M13.4674 7.30432L18.8901 22.6703V22.6633L19.3183 23.8747C21.7016 30.6186 22.9821 34.2346 22.9896 34.2421C22.9946 34.2471 23.3552 34.2688 23.7909 34.2904C25.1111 34.356 26.7471 34.4963 27.9882 34.6505C28.2741 34.6861 28.5201 34.7043 28.5373 34.6914L23.1566 19.4263V19.4291L22.6586 18.0238C22.1719 16.6508 21.847 15.7325 19.892 10.2049C19.3663 8.71858 18.9202 7.45791 18.9006 7.40341L18.8651 7.30432H16.1662H13.4674V7.30432Z" fill="#E50914"/>
<path fill-rule="evenodd" clip-rule="evenodd" d="M23.178 7.32239L23.1673 13.3758L23.1567 19.4291L22.6586 18.0239C22.6584 18.0234 22.6578 18.0216 22.6577 18.0211L22.0141 31.4976C22.6468 33.2844 22.9859 34.2383 22.9897 34.2421C22.9946 34.2471 23.3552 34.2689 23.791 34.2905C25.1112 34.356 26.7472 34.4964 27.9883 34.6506C28.2756 34.6863 28.5229 34.7046 28.5378 34.6912C28.5527 34.6779 28.5608 28.5144 28.5558 20.9947L28.5468 7.32239H25.8624H23.178V7.32239Z" fill="#B1060F" stroke="black" stroke-width="0.0820533"/>
<path fill-rule="evenodd" clip-rule="evenodd" d="M13.4673 7.30432V20.9905C13.4673 28.5178 13.4747 34.684 13.4837 34.693C13.4927 34.7021 13.9589 34.658 14.5196 34.5952C15.0804 34.5324 15.8554 34.4543 16.2418 34.4217C16.8345 34.3717 18.6041 34.2579 18.809 34.2567C18.8686 34.2563 18.8724 33.9488 18.881 28.4598L18.8902 22.6633L19.3183 23.8747C19.3845 24.0619 19.4052 24.1204 19.4697 24.3028L20.1131 10.8297C19.9768 10.4443 20.0483 10.6466 19.892 10.2049C19.3663 8.71858 18.9202 7.45791 18.9007 7.40341L18.8651 7.30432H16.1663H13.4673V7.30432Z" fill="#B1060F" stroke="black" stroke-width="0.0820533"/>
<path fill-rule="evenodd" clip-rule="evenodd" d="M13.4673 7.30432V14.9867L18.8792 29.3426C18.8798 29.0136 18.8805 28.8358 18.881 28.4598L18.8902 22.6633L19.3183 23.8747C21.7017 30.6186 22.9821 34.2345 22.9896 34.2421C22.9946 34.2471 23.3552 34.2688 23.791 34.2904C25.1112 34.3559 26.7472 34.4963 27.9882 34.6505C28.2756 34.6862 28.5229 34.7045 28.5378 34.6912C28.548 34.682 28.5547 31.6599 28.5565 27.3966L23.1699 11.9102L23.1673 13.3757L23.1566 19.4291L22.6586 18.0238C22.172 16.6508 21.8471 15.7325 19.892 10.2049C19.3663 8.71858 18.9202 7.45791 18.9007 7.40341L18.8651 7.30432H16.1663H13.4673H13.4673Z" fill="url(#paint1_radial_7277_57536)"/>
<path fill-rule="evenodd" clip-rule="evenodd" d="M13.4674 7.30432L18.8901 22.6703V22.6633L19.3183 23.8747C21.7016 30.6186 22.9821 34.2346 22.9896 34.2421C22.9946 34.2471 23.3552 34.2688 23.7909 34.2904C25.1111 34.356 26.7471 34.4963 27.9882 34.6505C28.2741 34.6861 28.5201 34.7043 28.5373 34.6914L23.1566 19.4263V19.4291L22.6586 18.0238C22.1719 16.6508 21.847 15.7325 19.892 10.2049C19.3663 8.71858 18.9202 7.45791 18.9006 7.40341L18.8651 7.30432H16.1662H13.4674V7.30432Z" fill="#E50914"/>
<defs>
<radialGradient id="paint0_radial_7277_57536" cx="0" cy="0" r="1" gradientUnits="userSpaceOnUse" gradientTransform="translate(20.7614 20.8407) rotate(-19.0982) scale(3.42003 125.273)">
<stop/>
<stop offset="1" stop-opacity="0"/>
</radialGradient>
<radialGradient id="paint1_radial_7277_57536" cx="0" cy="0" r="1" gradientUnits="userSpaceOnUse" gradientTransform="translate(20.7614 20.8407) rotate(-19.0982) scale(3.42003 125.273)">
<stop/>
<stop offset="1" stop-opacity="0"/>
</radialGradient>
</defs>
</svg>

<svg xmlns="http://www.w3.org/2000/svg" width="42" height="42" fill="none"><circle cx="21" cy="21" r="21" fill="#000"/><path fill="#B1060F" fill-rule="evenodd" stroke="#000" stroke-width=".082" d="m23.178 7.322-.01 6.054-.011 6.053-.498-1.405-.001-.003-.644 13.477c.633 1.786.972 2.74.976 2.744.005.005.365.027.801.049 1.32.065 2.956.205 4.197.36.288.035.535.054.55.04.015-.013.023-6.177.018-13.696l-.01-13.673h-5.368ZM13.467 7.304V20.99c0 7.528.008 13.694.017 13.703.009.01.475-.035 1.036-.098.56-.063 1.335-.14 1.722-.173.592-.05 2.362-.164 2.567-.165.06 0 .063-.308.072-5.797l.01-5.797.427 1.212.152.428.643-13.473-.221-.625-.991-2.802-.036-.099h-5.398Z" clip-rule="evenodd"/><path fill="url(#a)" fill-rule="evenodd" d="M13.467 7.304v7.683l5.412 14.356.002-.883.01-5.797.427 1.212a3414.04 3414.04 0 0 0 3.672 10.367c.005.005.365.027.801.048a62.18 62.18 0 0 1 4.197.36c.288.036.535.055.55.041.01-.009.017-3.031.018-7.294L23.17 11.91l-.003 1.466-.01 6.053-.498-1.405A13263.617 13263.617 0 0 1 18.9 7.404l-.036-.1h-5.398Z" clip-rule="evenodd"/><path fill="#E50914" fill-rule="evenodd" d="M13.467 7.304 18.89 22.67v-.007l.428 1.212a3366.32 3366.32 0 0 0 3.672 10.367c.005.005.365.027.8.048 1.321.066 2.957.206 4.198.36.286.036.532.054.55.041l-5.381-15.265v.003l-.498-1.405A11741.436 11741.436 0 0 1 18.9 7.404l-.036-.1h-5.398Z" clip-rule="evenodd"/><path fill="#B1060F" fill-rule="evenodd" stroke="#000" stroke-width=".082" d="m23.178 7.322-.01 6.054-.011 6.053-.498-1.405-.001-.003-.644 13.477c.633 1.786.972 2.74.976 2.744.005.005.365.027.801.049 1.32.065 2.956.205 4.197.36.288.035.535.054.55.04.015-.013.023-6.177.018-13.696l-.01-13.673h-5.368ZM13.467 7.304V20.99c0 7.528.008 13.694.017 13.703.009.01.475-.035 1.036-.098.56-.063 1.335-.14 1.722-.173.592-.05 2.362-.164 2.567-.165.06 0 .063-.308.072-5.797l.01-5.797.427 1.212.152.428.643-13.473-.221-.625-.991-2.802-.036-.099h-5.398Z" clip-rule="evenodd"/><path fill="url(#b)" fill-rule="evenodd" d="M13.467 7.304v7.683l5.412 14.356.002-.883.01-5.797.427 1.212a3414.04 3414.04 0 0 0 3.672 10.367c.005.005.365.027.801.048a62.18 62.18 0 0 1 4.197.36c.288.036.535.055.55.041.01-.009.017-3.031.018-7.294L23.17 11.91l-.003 1.466-.01 6.053-.498-1.405A13263.617 13263.617 0 0 1 18.9 7.404l-.036-.1h-5.398Z" clip-rule="evenodd"/><path fill="#E50914" fill-rule="evenodd" d="M13.467 7.304 18.89 22.67v-.007l.428 1.212a3366.32 3366.32 0 0 0 3.672 10.367c.005.005.365.027.8.048 1.321.066 2.957.206 4.198.36.286.036.532.054.55.041l-5.381-15.265v.003l-.498-1.405A11741.436 11741.436 0 0 1 18.9 7.404l-.036-.1h-5.398Z" clip-rule="evenodd"/><defs><radialGradient id="a" cx="0" cy="0" r="1" gradientTransform="rotate(-19.098 72.324 -51.287) scale(3.42003 125.273)" gradientUnits="userSpaceOnUse"><stop/><stop offset="1" stop-opacity="0"/></radialGradient><radialGradient id="b" cx="0" cy="0" r="1" gradientTransform="rotate(-19.098 72.324 -51.287) scale(3.42003 125.273)" gradientUnits="userSpaceOnUse"><stop/><stop offset="1" stop-opacity="0"/></radialGradient></defs></svg>
